dist/img/svg/icon-menu-news.svg

<svg width="13" height="14" viewBox="0 0 13 14" fill="none" xmlns="http://www.w3.org/2000/svg">
<path d="M0.000915527 6.47972C0.000915527 4.45242 0.000915527 2.42512 0.00169556 0.398596C0.00169556 0.0343214 0.036797 0 0.405752 0C4.45957 0.000780031 8.51418 0.00156006 12.568 0.00312012C12.9799 0.00312012 12.997 0.0241809 12.997 0.430577C12.9962 1.46334 12.9908 2.49688 13.0009 3.52964C13.0033 3.78939 12.9276 3.90718 12.6507 3.8869C12.3792 3.86739 12.1047 3.87285 11.8324 3.88612C11.6015 3.89704 11.5212 3.79953 11.5235 3.57722C11.5298 2.98284 11.5157 2.38846 11.5267 1.79407C11.5313 1.5546 11.4487 1.47036 11.2061 1.47114C8.068 1.4766 4.92993 1.4766 1.79187 1.47114C1.54772 1.47036 1.47205 1.5585 1.47283 1.79641C1.47829 4.93448 1.47829 8.07254 1.47283 11.2106C1.47205 11.4602 1.56878 11.5296 1.80201 11.525C2.34725 11.5148 2.89327 11.532 3.43929 11.5211C3.69592 11.5156 3.78719 11.6154 3.77393 11.8666C3.75833 12.1482 3.75989 12.4321 3.77159 12.7145C3.78095 12.9407 3.66862 12.9977 3.46893 12.9977C2.42603 12.9945 1.38391 12.9922 0.341009 13.0016C0.0820388 13.0039 0.00247559 12.8931 0.00403565 12.6498C0.0102759 11.6459 0.00481568 10.642 0.00403565 9.63885C0.000915527 8.58424 0.00169556 7.53198 0.000915527 6.47972Z" fill="white"/>
<path d="M5.33165 12.9945C4.50794 12.9953 4.62104 13.0725 4.61792 12.2769C4.60232 8.62636 7.27237 5.40405 10.8597 4.75039C11.4635 4.6404 12.075 4.60062 12.6912 4.61232C12.919 4.617 13.0079 4.70359 13.0001 4.92511C12.9908 5.19735 12.9853 5.47114 12.9986 5.74337C13.0111 5.99454 12.912 6.09204 12.6593 6.08892C12.0657 6.08034 11.4736 6.08736 10.8878 6.22465C8.35817 6.81903 6.46504 8.88923 6.12338 11.4657C6.07736 11.8112 6.09218 12.1654 6.0875 12.5164C6.08126 12.9945 6.08516 12.9945 5.59452 12.9953C5.50716 12.9945 5.4198 12.9945 5.33165 12.9945Z" fill="white"/>
<path d="M7.66316 12.9945C7.6343 12.9945 7.60466 12.9945 7.57579 12.9945C6.86363 12.9992 6.89561 13.0562 6.91589 12.3346C6.97127 10.3307 7.81448 8.75819 9.53289 7.68799C10.5087 7.08035 11.5898 6.8908 12.7217 6.91264C12.9198 6.91654 13.0025 7.0078 12.9994 7.20047C12.9947 7.4922 12.9892 7.78472 12.9986 8.07723C13.0064 8.30344 12.9135 8.3908 12.6873 8.38456C12.2201 8.3713 11.7544 8.38222 11.2958 8.49922C9.62806 8.9259 8.42135 10.4423 8.38625 12.1654C8.38313 12.3307 8.37221 12.4977 8.38625 12.6615C8.40809 12.9204 8.29264 13.0164 8.04459 12.9961C7.91745 12.986 7.7903 12.9945 7.66316 12.9945Z" fill="white"/>
<path d="M12.9962 9.96803C12.9947 10.6568 12.9947 10.6568 12.2989 10.6716C11.3691 10.6911 10.6881 11.3791 10.6725 12.3151C10.6616 12.9938 10.6616 12.9946 9.98141 12.9953C9.10231 12.9961 9.23492 13.0757 9.2357 12.2543C9.23726 10.5835 10.5758 9.23948 12.2427 9.23558C13.0742 9.23168 12.997 9.09985 12.9962 9.96803Z" fill="white"/>
</svg>

<svg width="13" height="14" viewBox="0 0 13 14" fill="none" xmlns="http://www.w3.org/2000/svg"><path d="M0 6.48C0 4.452 0 2.425.003.399.002.034.037 0 .406 0l12.162.003c.412 0 .429.021.429.428 0 1.032-.006 2.066.004 3.099.002.26-.073.377-.35.357a6.815 6.815 0 00-.819 0c-.23.01-.31-.087-.309-.31.007-.594-.007-1.189.004-1.783.004-.24-.078-.324-.32-.323-3.139.006-6.277.006-9.415 0-.244 0-.32.087-.32.325.006 3.138.006 6.277 0 9.415 0 .25.097.319.33.314.545-.01 1.091.007 1.637-.004.257-.005.348.094.335.346a8.783 8.783 0 00-.002.847c.009.227-.103.284-.303.284a258.836 258.836 0 00-3.128.004c-.259.002-.339-.109-.337-.352.006-1.004 0-2.008 0-3.011C.001 8.584.002 7.532.001 6.479z" fill="#fff"/><path d="M5.332 12.995c-.824 0-.711.078-.714-.718-.016-3.65 2.654-6.873 6.242-7.527a9.22 9.22 0 011.831-.138c.228.005.317.092.31.313a9.88 9.88 0 00-.002.818c.012.252-.087.349-.34.346-.593-.009-1.185-.002-1.771.136a6.218 6.218 0 00-4.765 5.24c-.046.346-.03.7-.035 1.051-.007.479-.003.479-.493.48-.088-.002-.175-.002-.263-.002z" fill="#fff"/><path d="M7.663 12.995h-.087c-.712.004-.68.061-.66-.66.055-2.004.898-3.577 2.617-4.647.976-.608 2.057-.797 3.189-.775.198.004.28.095.277.287-.004.292-.01.585 0 .877.007.226-.085.314-.312.308-.467-.014-.933-.003-1.391.114a3.894 3.894 0 00-2.91 3.666c-.003.166-.014.333 0 .497.022.258-.093.354-.341.334-.128-.01-.255-.002-.382-.002z" fill="#fff"/><path d="M12.996 9.968c-.001.689-.001.689-.697.704-.93.02-1.61.707-1.627 1.643-.01.679-.01.68-.69.68-.88.001-.747.08-.746-.74a3.01 3.01 0 013.007-3.02c.831-.003.754-.135.753.733z" fill="#fff"/></svg>
